docs/img/logo-footer.svg

<svg width="113" height="86" viewBox="0 0 113 86" fill="none" xmlns="http://www.w3.org/2000/svg">
<path d="M6.72884 5.61247V80.0168H43.7275V73.6572H50.6106L50.5192 77.2888V86H0V0H50.6106V12.0937H43.7275V5.61247H6.72884Z" fill="#19E0BE"/>
<path d="M25.7155 39.6787C24.6524 39.6787 23.6834 39.4741 22.8087 39.0649C21.9474 38.6421 21.2005 38.0828 20.568 37.3871C19.9354 36.6779 19.451 35.8867 19.1145 35.0138C18.7781 34.1271 18.6099 33.2132 18.6099 32.2721C18.6099 31.3173 18.7848 30.4034 19.1347 29.5304C19.4981 28.6438 19.996 27.8595 20.6285 27.1774C21.2745 26.4818 22.0348 25.9362 22.9096 25.5406C23.7843 25.145 24.7398 24.9473 25.7761 24.9473C26.8392 24.9473 27.8015 25.1587 28.6628 25.5815C29.5375 25.9907 30.2844 26.55 30.9035 27.2593C31.536 27.9686 32.0204 28.7665 32.3569 29.6531C32.6933 30.5261 32.8616 31.4196 32.8616 32.3334C32.8616 33.2883 32.6799 34.209 32.3165 35.0956C31.9666 35.9686 31.4687 36.7529 30.8227 37.4485C30.1902 38.1305 29.4366 38.6762 28.5618 39.0854C27.7005 39.4809 26.7518 39.6787 25.7155 39.6787ZM21.981 32.313C21.981 33.0632 22.1223 33.7725 22.4049 34.4409C22.6875 35.0956 23.1115 35.6344 23.6767 36.0572C24.2419 36.4801 24.9282 36.6915 25.7357 36.6915C26.5701 36.6915 27.2632 36.4733 27.8149 36.0368C28.3801 35.6003 28.7973 35.0479 29.0665 34.3795C29.3491 33.6975 29.4904 32.995 29.4904 32.2721C29.4904 31.5219 29.3424 30.8194 29.0463 30.1647C28.7637 29.4963 28.3398 28.9575 27.7745 28.5483C27.2228 28.1391 26.5432 27.9345 25.7357 27.9345C24.9013 27.9345 24.2015 28.1527 23.6363 28.5892C23.0845 29.0121 22.6674 29.5577 22.3847 30.226C22.1156 30.8944 21.981 31.5901 21.981 32.313Z" fill="white"/>
<path d="M34.8351 39.5559V25.0291H38.1255V30.6557H39.256L43.2529 25.0291H46.9268L41.7995 32.047L47.3709 39.5559H43.3538L39.155 33.7043H38.1255V39.5559H34.8351Z" fill="white"/>
<path d="M61.4205 25.0291V39.5559H58.1099V33.602H52.3971V39.5559H49.0865V25.0291H52.3971V30.6557H58.1099V25.0291H61.4205Z" fill="white"/>
<path d="M67.7806 25.0291H71.3536L76.2792 39.5559H72.8878L71.7776 36.3028H67.3163L66.2263 39.5559H62.8349L67.7806 25.0291ZM71.2325 33.9907L69.557 28.4051L67.8412 33.9907H71.2325Z" fill="white"/>
<path d="M19.4981 62.7443V48.2175H31.4283V62.7443H28.1177V51.1638H22.8087V62.7443H19.4981Z" fill="white"/>
<path d="M34.2423 62.7443V48.2175H40.3588C41.0451 48.2175 41.6709 48.3607 42.2361 48.6472C42.8148 48.92 43.3128 49.2951 43.73 49.7725C44.1471 50.2362 44.4701 50.7614 44.6989 51.3479C44.9277 51.9344 45.0421 52.5278 45.0421 53.128C45.0421 53.9737 44.8469 54.7716 44.4567 55.5218C44.0799 56.272 43.5483 56.8858 42.8619 57.3633C42.1756 57.827 41.3749 58.0589 40.4597 58.0589H37.5529V62.7443H34.2423ZM37.5529 55.1331H40.2579C40.6481 55.1331 40.9846 54.9626 41.2672 54.6216C41.5498 54.2806 41.6911 53.7827 41.6911 53.128C41.6911 52.4596 41.5229 51.9685 41.1864 51.6548C40.8635 51.3275 40.5136 51.1638 40.1367 51.1638H37.5529V55.1331Z" fill="white"/>
<path d="M56.8925 59.798V62.7443H46.8194V48.2175H56.7108V51.1638H50.13V53.9873H55.7823V56.7085H50.13V59.798H56.8925Z" fill="white"/>
<path d="M70.2082 62.7443V54.0896L67.1197 60.3914H65.3029L62.2144 54.0896V62.7443H58.9038V48.2175H62.497L66.2113 55.8083L69.9458 48.2175H73.5188V62.7443H70.2082Z" fill="white"/>
<path d="M76.3318 62.7443V48.2175H79.6424V53.2303H82.307C83.8951 53.2303 85.1332 53.6531 86.0214 54.4988C86.923 55.3445 87.3739 56.4971 87.3739 57.9566C87.3739 59.4025 86.9432 60.5619 86.0819 61.4349C85.2206 62.3078 84.0229 62.7443 82.4887 62.7443H76.3318ZM79.6424 60.0026H82.0042C82.6906 60.0026 83.1953 59.8117 83.5182 59.4297C83.8412 59.0478 84.0027 58.5568 84.0027 57.9566C84.0027 57.4383 83.8412 56.9813 83.5182 56.5858C83.2087 56.1766 82.704 55.972 82.0042 55.972H79.6424V60.0026Z" fill="white"/>
<path d="M99.2961 59.798V62.7443H89.223V48.2175H99.1144V51.1638H92.5336V53.9873H98.1858V56.7085H92.5336V59.798H99.2961Z" fill="white"/>
<path d="M101.307 62.7443V48.2175H107.424C108.11 48.2175 108.736 48.3607 109.301 48.6472C109.88 48.92 110.378 49.2951 110.795 49.7725C111.212 50.2362 111.535 50.7614 111.764 51.3479C111.993 51.9344 112.107 52.5278 112.107 53.128C112.107 53.9737 111.912 54.7716 111.522 55.5218C111.145 56.272 110.613 56.8858 109.927 57.3633C109.241 57.827 108.44 58.0589 107.525 58.0589H104.618V62.7443H101.307ZM104.618 55.1331H107.323C107.713 55.1331 108.05 54.9626 108.332 54.6216C108.615 54.2806 108.756 53.7827 108.756 53.128C108.756 52.4596 108.588 51.9685 108.251 51.6548C107.928 51.3275 107.579 51.1638 107.202 51.1638H104.618V55.1331Z" fill="white"/>
</svg>

<svg width="113" height="86" fill="none" xmlns="http://www.w3.org/2000/svg"><path d="M6.729 5.612v74.405h36.998v-6.36h6.884l-.092 3.632V86H0V0h50.61v12.094h-6.883V5.612H6.73Z" fill="#19E0BE"/><path d="M25.715 39.679c-1.063 0-2.032-.205-2.906-.614a7.412 7.412 0 0 1-2.241-1.678 7.701 7.701 0 0 1-1.454-2.373 7.668 7.668 0 0 1-.504-2.742c0-.955.175-1.869.525-2.742a7.751 7.751 0 0 1 1.493-2.353 7.038 7.038 0 0 1 2.282-1.636c.874-.396 1.83-.594 2.866-.594 1.063 0 2.026.212 2.887.634.875.41 1.621.969 2.24 1.678a7.641 7.641 0 0 1 1.454 2.394c.336.873.505 1.767.505 2.68 0 .955-.182 1.876-.546 2.763a7.568 7.568 0 0 1-1.493 2.353 7.22 7.22 0 0 1-2.261 1.636c-.861.396-1.81.594-2.847.594Zm-3.734-7.366c0 .75.141 1.46.424 2.128a3.926 3.926 0 0 0 1.272 1.616c.565.423 1.251.634 2.059.634.834 0 1.527-.218 2.079-.654a3.895 3.895 0 0 0 1.252-1.657 5.456 5.456 0 0 0 .423-2.108c0-.75-.148-1.453-.444-2.107a3.758 3.758 0 0 0-1.271-1.617c-.552-.409-1.232-.613-2.04-.613-.834 0-1.534.218-2.099.654a3.968 3.968 0 0 0-1.251 1.637 5.537 5.537 0 0 0-.404 2.087ZM34.835 39.556V25.029h3.29v5.627h1.131l3.997-5.627h3.674L41.8 32.047l5.57 7.509h-4.016l-4.199-5.852h-1.03v5.852h-3.29ZM61.42 25.03v14.526h-3.31v-5.954h-5.713v5.954h-3.31V25.029h3.31v5.627h5.713v-5.627h3.31ZM67.78 25.03h3.574l4.925 14.526h-3.391l-1.11-3.253h-4.462l-1.09 3.253h-3.391l4.946-14.527Zm3.453 8.96-1.676-5.585-1.716 5.586h3.392ZM19.498 62.744V48.218h11.93v14.526h-3.31v-11.58h-5.31v11.58h-3.31ZM34.242 62.744V48.218h6.117c.686 0 1.312.143 1.877.43a4.523 4.523 0 0 1 1.494 1.124c.417.464.74.99.969 1.576.229.586.343 1.18.343 1.78 0 .846-.195 1.644-.585 2.394a4.872 4.872 0 0 1-1.595 1.841c-.686.464-1.487.696-2.402.696h-2.907v4.685h-3.31Zm3.31-7.61h2.706c.39 0 .727-.171 1.01-.512.282-.341.423-.84.423-1.494 0-.668-.168-1.16-.505-1.473-.322-.328-.672-.491-1.05-.491h-2.583v3.97ZM56.892 59.798v2.946H46.82V48.218h9.892v2.946H50.13v2.823h5.652v2.721H50.13v3.09h6.762ZM70.208 62.744V54.09L67.12 60.39h-1.817l-3.089-6.301v8.654h-3.31V48.218h3.593l3.714 7.59 3.735-7.59h3.573v14.526h-3.31ZM76.332 62.744V48.218h3.31v5.012h2.665c1.588 0 2.826.423 3.714 1.269.902.845 1.353 1.998 1.353 3.458 0 1.446-.43 2.605-1.292 3.478-.861.873-2.06 1.31-3.593 1.31h-6.157Zm3.31-2.741h2.362c.687 0 1.191-.191 1.514-.573.323-.382.485-.873.485-1.473 0-.519-.162-.976-.485-1.371-.31-.41-.814-.614-1.514-.614h-2.362v4.03ZM99.296 59.798v2.946H89.223V48.218h9.891v2.946h-6.58v2.823h5.652v2.721h-5.652v3.09h6.762ZM101.307 62.744V48.218h6.117c.686 0 1.312.143 1.877.43a4.519 4.519 0 0 1 1.494 1.124c.417.464.74.99.969 1.576.229.586.343 1.18.343 1.78 0 .846-.195 1.644-.585 2.394a4.878 4.878 0 0 1-1.595 1.841c-.686.464-1.487.696-2.402.696h-2.907v4.685h-3.311Zm3.311-7.61h2.705c.39 0 .727-.171 1.009-.512.283-.341.424-.84.424-1.494 0-.668-.168-1.16-.505-1.473-.323-.328-.672-.491-1.049-.491h-2.584v3.97Z" fill="#fff"/></svg>
